app/assets/images/remix_icon/user/user-star-fill.svg

<svg viewBox="0 0 24 24" xmlns="http://www.w3.org/2000/svg"><path d="M12 14V22H4C4 17.5817 7.58172 14 12 14ZM18 21.5L15.0611 23.0451L15.6224 19.7725L13.2447 17.4549L16.5305 16.9775L18 14L19.4695 16.9775L22.7553 17.4549L20.3776 19.7725L20.9389 23.0451L18 21.5ZM12 13C8.685 13 6 10.315 6 7C6 3.685 8.685 1 12 1C15.315 1 18 3.685 18 7C18 10.315 15.315 13 12 13Z"/></svg>

<svg xmlns="http://www.w3.org/2000/svg" viewBox="0 0 24 24">
    <g>
        <path fill="none" d="M0 0h24v24H0z"/>
        <path d="M12 14v8H4a8 8 0 0 1 8-8zm6 7.5l-2.939 1.545.561-3.272-2.377-2.318 3.286-.478L18 14l1.47 2.977 3.285.478-2.377 2.318.56 3.272L18 21.5zM12 13c-3.315 0-6-2.685-6-6s2.685-6 6-6 6 2.685 6 6-2.685 6-6 6z"/>
    </g>
</svg>
